world_stage/static/flags/rect/pak.svg

<svg height="800" viewBox="0 0 1200 800" width="1200" xmlns="http://www.w3.org/2000/svg" xmlns:xlink="http://www.w3.org/1999/xlink"><clipPath id="a"><path d="m0 600h900v-600h-900z" transform="translate(-562.50001 -480.00001)"/></clipPath><clipPath id="b"><path d="m0 600h900v-600h-900z" transform="translate(-498.89061 -464.22071)"/></clipPath><clipPath id="c"><path d="m0 600h900v-600h-900z" transform="translate(-628.13572 -434.69141)"/></clipPath><path d="m0 0h900v600h-900z" fill="#fff" transform="matrix(1.3333333 0 0 -1.3333333 0 800)"/><path d="m225 0h675v600h-675z" fill="#01411c" transform="matrix(1.3333333 0 0 -1.3333333 0 800)"/><path clip-path="url(#a)" d="m0 0c99.411 0 180-80.589 180-180s-80.589-180-180-180-180 80.589-180 180 80.589 180 180 180" fill="#fff" transform="matrix(1.3333333 0 0 -1.3333333 750 160)"/><path clip-path="url(#b)" d="m0 0c68.108 60.542 172.4 54.407 232.942-13.703 60.541-68.109 54.407-172.401-13.702-232.943-68.109-60.541-172.401-54.406-232.943 13.704-60.541 68.109-54.406 172.4 13.703 232.942" fill="#01411c" transform="matrix(1.3333333 0 0 -1.3333333 665.18747 181.03907)"/><path clip-path="url(#c)" d="m0 0 75.822-85.299-111.479 24.441 104.554 45.752-57.694-98.47z" fill="#fff" transform="matrix(1.3333333 0 0 -1.3333333 837.51427 220.41147)"/></svg>

<?xml version="1.0" encoding="UTF-8" standalone="no"?>
<!-- Created with Inkscape (http://www.inkscape.org/) -->

<svg
   version="1.1"
   id="svg1"
   width="1200"
   height="800"
   viewBox="0 0 1200 800"
   sodipodi:docname="pk.ai"
   xmlns:inkscape="http://www.inkscape.org/namespaces/inkscape"
   xmlns:sodipodi="http://sodipodi.sourceforge.net/DTD/sodipodi-0.dtd"
   xmlns="http://www.w3.org/2000/svg"
   xmlns:svg="http://www.w3.org/2000/svg">
  <defs
     id="defs1">
    <clipPath
       clipPathUnits="userSpaceOnUse"
       id="clipPath4">
      <path
         d="M 0,600 H 900 V 0 H 0 Z"
         transform="translate(-562.50001,-480.00001)"
         id="path4" />
    </clipPath>
    <clipPath
       clipPathUnits="userSpaceOnUse"
       id="clipPath6">
      <path
         d="M 0,600 H 900 V 0 H 0 Z"
         transform="translate(-498.89061,-464.22071)"
         id="path6" />
    </clipPath>
    <clipPath
       clipPathUnits="userSpaceOnUse"
       id="clipPath8">
      <path
         d="M 0,600 H 900 V 0 H 0 Z"
         transform="translate(-628.13572,-434.69141)"
         id="path8" />
    </clipPath>
  </defs>
  <sodipodi:namedview
     id="namedview1"
     pagecolor="#ffffff"
     bordercolor="#000000"
     borderopacity="0.25"
     inkscape:showpageshadow="2"
     inkscape:pageopacity="0.0"
     inkscape:pagecheckerboard="0"
     inkscape:deskcolor="#d1d1d1">
    <inkscape:page
       x="0"
       y="0"
       inkscape:label="1"
       id="page1"
       width="1200"
       height="800"
       margin="0"
       bleed="0" />
  </sodipodi:namedview>
  <g
     id="layer-MC0"
     inkscape:groupmode="layer"
     inkscape:label="Layer 1">
    <path
       id="path1"
       d="M 0,0 H 900 V 600 H 0 Z"
       style="fill:#ffffff;fill-opacity:1;fill-rule:nonzero;stroke:none"
       transform="matrix(1.3333333,0,0,-1.3333333,0,800)" />
    <path
       id="path2"
       d="M 225,0 H 900 V 600 H 225 Z"
       style="fill:#01411c;fill-opacity:1;fill-rule:nonzero;stroke:none"
       transform="matrix(1.3333333,0,0,-1.3333333,0,800)" />
    <path
       id="path3"
       d="m 0,0 c 99.411,0 180,-80.589 180,-180 0,-99.411 -80.589,-180 -180,-180 -99.411,0 -180,80.589 -180,180 0,99.411 80.589,180 180,180"
       style="fill:#ffffff;fill-opacity:1;fill-rule:nonzero;stroke:none"
       transform="matrix(1.3333333,0,0,-1.3333333,750,160)"
       clip-path="url(#clipPath4)" />
    <path
       id="path5"
       d="M 0,0 C 68.108,60.542 172.4,54.407 232.942,-13.703 293.483,-81.812 287.349,-186.104 219.24,-246.646 151.131,-307.187 46.839,-301.052 -13.703,-232.942 -74.244,-164.833 -68.109,-60.542 0,0"
       style="fill:#01411c;fill-opacity:1;fill-rule:nonzero;stroke:none"
       transform="matrix(1.3333333,0,0,-1.3333333,665.18747,181.03907)"
       clip-path="url(#clipPath6)" />
    <path
       id="path7"
       d="m 0,0 75.822,-85.299 -111.479,24.441 104.554,45.752 -57.694,-98.47 z"
       style="fill:#ffffff;fill-opacity:1;fill-rule:nonzero;stroke:none"
       transform="matrix(1.3333333,0,0,-1.3333333,837.51427,220.41147)"
       clip-path="url(#clipPath8)" />
  </g>
</svg>
